X: 42805
T: Whittamore Road
R: reel
M: 4/4
K: Aminor
|:A/B/|cggc B3 c/B/|AGGE G3 A/B/|cBcd B3 A/G/|G6 zA/B/|
cggc B3 c/B/|AGGE G3 A/B/|cBcd B3 A|A6 z:|
|:G/E/|DEGE A4|Bc d/c/B e4|DEGE A3 G|G6 zA/B/|
cggc B3 c/B/|AGAc e3 A/B/|cBcd B3 A|A6 z:|

